!!!COM:      Bach, Johann Sebastian
!!!CDT:      1685/03/31/-1750/07/28/
!!!OPR@@GER: Das wohltemperirte Clavier
!!!OVM@@GER: Band II
!!!OPR@ENG:  Well-Tempered Clavier
!!!OVM@ENG:  Book II
!!!OTL:      Prelude
!!!OKY:      F minor
!!!ONM:      no. 12
!!!SCT:      BWV 881
!!!OMV:      1
**kern	**kern	**kern	**kern
*>[A,A,B,B]	*>[A,A,B,B]	*>[A,A,B,B]	*>[A,A,B,B]
*>norep[A,B]	*>norep[A,B]	*>norep[A,B]	*>norep[A,B]
*>A	*>A	*>A	*>A
*clefF4	*	*clefG2	*clefG2
*k[b-e-a-d-]	*	*k[b-e-a-d-]	*k[b-e-a-d-]
*f:	*	*f:	*f:
*M2/4	*	*M2/4	*M2/4
*MM69	*MM69	*MM69	*MM69
=1-	=1-	=1-	=1-
4F	4ryy	8ryy	8r
.	.	8f	8a-
=2	=2	=2	=2
4c	2ryy	8f	8a-
.	.	8en	8g
4C	.	8ryy	8r
.	.	8g	8b-
=3	=3	=3	=3
4F	2ryy	8g	8b-
.	.	8f	8a-
4FF	.	8ryy	8r
.	.	8cc	8aa-
=4	=4	=4	=4
4BB-	2ryy	8cc	8aa-
.	.	8b-	8gg
4BBn	.	8ryy	8r
.	.	8a-	8ff
=5	=5	=5	=5
4C	2ryy	8a-	8ff
.	.	8g	8een
4r	.	8en	16r
.	.	.	16g
.	.	8r	16c
.	.	.	16g
=6	=6	=6	=6
2r	2ryy	8f	16r
.	.	.	16a-
.	.	8r	16c
.	.	.	16a-
.	.	8dn	16r
.	.	.	16f
.	.	8r	16c
.	.	.	16f
=7	=7	=7	=7
2r	2ryy	8en	16r
.	.	.	16g
.	.	8r	16c
.	.	.	16g
.	.	8g	16r
.	.	.	16b-
.	.	8r	16c
.	.	.	16b-
=8	=8	=8	=8
2r	2ryy	8f	16r
.	.	.	16a-
.	.	8r	16c
.	.	.	16a-
.	.	8dn	16r
.	.	.	16f
.	.	8r	16c
.	.	.	16f
=9	=9	=9	=9
4r	2ryy	8en	16r
.	.	.	16g
.	.	8r	16c
.	.	.	16g
4F	.	8r	8r
.	.	8f	8a-
=10	=10	=10	=10
4c	2ryy	8f	8a-
.	.	8en	8g
4C	.	8ryy	8r
.	.	8g	8b-
=11	=11	=11	=11
4F	2ryy	8g	8b-
.	.	8f	8a-
4FF	.	8ryy	8r
.	.	8a-	8cc
=12	=12	=12	=12
4BB-	2ryy	8a-	8cc
.	.	8b-	8dd-
4EE-	.	8ryy	8r
.	.	8g	8b-
=13	=13	=13	=13
4AA-	2ryy	8g	8b-
.	.	8a-	8cc
4A-	.	8ryy	8r
.	.	8cc	8ee-
=14	=14	=14	=14
4B-	2ryy	8cc	8ee-
.	.	8b-	8dd-
4BB-	.	8ryy	8r
.	.	8b-	8dd-
=15	=15	=15	=15
4C	2ryy	8b-	8dd-
.	.	8a-	8cc
4c	.	8ryy	8r
.	.	8ee-	8gg-
=16	=16	=16	=16
4d-	2ryy	8ee-	8gg-
.	.	8dd-	8ff
4dn	.	8ryy	8r
.	.	8cc	8aa-
=17	=17	=17	=17
4e-	2ryy	8cc	8aa-
.	.	8b-	8ggn
4r	.	8g	16r
.	.	.	16b-
.	.	8r	16e-
.	.	.	16b-
=18	=18	=18	=18
2r	2ryy	8a-	16r
.	.	.	16cc
.	.	8r	16e-
.	.	.	16cc
.	.	8f	16r
.	.	.	16a-
.	.	8r	16e-
.	.	.	16a-
=19	=19	=19	=19
2r	2ryy	8g	16r
.	.	.	16b-
.	.	8r	16e-
.	.	.	16b-
.	.	8b-	16r
.	.	.	16dd-
.	.	8r	16e-
.	.	.	16dd-
=20	=20	=20	=20
2r	2ryy	8a-	16r
.	.	.	16cc
.	.	8r	16e-
.	.	.	16cc
.	.	8f	16r
.	.	.	16ddn
.	.	8r	16e-
.	.	.	16dd
=21	=21	=21	=21
*	*staff:9	*	*
*	*clefF4	*	*
*	*k[b-e-a-d-]	*	*
4r	4ryy	8g	16r
.	.	.	16ee-
.	.	8r	16e-
.	.	.	16ee-
4C	8r	4ryy	16g-
.	.	.	16a-
.	[8A-	.	16cc
.	.	.	16ee-
=22	=22	=22	=22
4D-	8A-]	2ryy	16ee-
.	.	.	16cc
.	8F	.	16a-
.	.	.	16f
4BB-	8r	.	16f
.	.	.	16gn
.	[8G	.	16b-
.	.	.	16dd-
=23	=23	=23	=23
4C	8G]	2ryy	16dd-
.	.	.	16b-
.	8E-	.	16g
.	.	.	16e-
4AA-	8r	.	16e-
.	.	.	16f
.	[8F	.	16a-
.	.	.	16cc
=24	=24	=24	=24
4BB-	8F]	2ryy	16cc
.	.	.	16a-
.	8D-	.	16f
.	.	.	16d-
4GG	8r	.	16d-
.	.	.	16e-
.	[8E-	.	16g
.	.	.	16b-
=25	=25	=25	=25
4AA-	8E-]	2ryy	16b-
.	.	.	16g
.	8C	.	16e-
.	.	.	16c
4r	8E-	.	16r
.	.	.	16a-
.	8G-	.	16c
.	.	.	16a-
=26	=26	=26	=26
8r	8F	2ryy	16r
.	.	.	16a-
8AA-	8r	.	16d-
.	.	.	16a-
8GG-	8r	.	16r
.	.	.	16a-
8r	8E-	.	16c
.	.	.	16a-
=27	=27	=27	=27
8r	8D-	2ryy	16r
.	.	.	16a-
8FF-	8r	.	16B-
.	.	.	16a-
8EE-	8r	.	16r
.	.	.	16a-
8r	8C-	.	16A-
.	.	.	16a-
=28	=28	=28	=28
*	*	*staff:8	*
4DDn	8r	4ryy	16B-
.	.	.	16a-
.	8BB-	.	16f-
.	.	.	16a-
*MM69	*MM69	*MM69	*MM69
8r	[4E-	8e-	16e-
.	.	.	16g
8EE-	.	8d-	16d-
.	.	.	16g
=29	=29	=29	=29
4AA-	4E-]	8d-	8g
.	.	8c	8a-
=30:||:	=30:||:	=30:||:	=30:||:
*>B	*>B	*>B	*>B
4A-	4ryy	8ryy	8r
.	.	8a-	8cc
=31	=31	=31	=31
4e-	2ryy	8a-	8cc
.	.	8g	8b-
4E-	.	8ryy	8r
.	.	8b-	8dd-
=32	=32	=32	=32
4A-	2ryy	8b-	8dd-
.	.	8a-	8cc
4An	.	8ryy	8r
.	.	8g-	8ee-
=33	=33	=33	=33
4B-	2ryy	8g-	8ee-
.	.	8f	8ddn
4Dn	.	8ryy	8r
.	.	8a-	8ff
=34	=34	=34	=34
*	*staff:5	*	*
4E-	4ryy	8a-	8ff
.	.	8gn	8ee-
*clefG2	*clefG2	*	*
16r	4r	4r	4gg-
16an	.	.	.
16e-	.	.	.
16a	.	.	.
=35	=35	=35	=35
16r	2ryy	4r	4ff
16b-	.	.	.
16d-	.	.	.
16b-	.	.	.
16r	.	[4cc	4ee-
16g-	.	.	.
16An	.	.	.
16g-	.	.	.
=36	=36	=36	=36
16r	2ryy	8cc]	4dd-
16f	.	.	.
16B-	.	8b-	.
16f	.	.	.
16r	.	4cc-	4ddn
16a-	.	.	.
16B-	.	.	.
16a-	.	.	.
=37	=37	=37	=37
16r	2ryy	4b-	4ee-
16g-	.	.	.
16c	.	.	.
16g-	.	.	.
16r	.	4a-	[4ff
16f	.	.	.
16dn	.	.	.
16f	.	.	.
=38	=38	=38	=38
16r	2ryy	4g-	8ff]
16e-	.	.	.
16dn	.	.	8ee-
16e-	.	.	.
16c	.	4ryy	16r
16e-	.	.	16gg-
16d-	.	.	16ff
16e-	.	.	16gg-
*clefF4	*	*	*
=39	=39	=39	=39
16F	2ryy	2ryy	8b-
16d-	.	.	.
16c	.	.	[8an
16d-	.	.	.
16Gn	.	.	16a]
16c	.	.	16ee-
16B-	.	.	16dd-
16c	.	.	16ee-
=40	=40	=40	=40
*	*	*staff:4	*
16An	2ryy	4ryy	8g-
16B-	.	.	.
16A	.	.	[8f
16B-	.	.	.
16D-	.	4f	16f]
16B-	.	.	16dd-
16An	.	.	16cc
16B-	.	.	16dd-
=41	=41	=41	=41
16G-	2ryy	4e-	16e-
16F	.	.	16cc
16G-	.	.	16b-
16E-	.	.	[16cc
8F	.	8d-	16cc]
.	.	.	8b-
8FF	.	8c	.
.	.	.	16an
=42	=42	=42	=42
4BB-	2ryy	8c	8an
.	.	8d-	8b-
16r	.	4ryy	8ff
16d-	.	.	.
16c	.	.	8ee-W
16d-	.	.	.
=43	=43	=43	=43
16B-	2ryy	2ryy	8dd-
16d-	.	.	.
16A-	.	.	8ff
16d-	.	.	.
16G	.	.	8b-
16d-	.	.	.
16F	.	.	16dd-
16d-	.	.	16ff
=44	=44	=44	=44
16E-	2ryy	2ryy	8aa-
16G	.	.	.
16B-	.	.	8gg
16d-	.	.	.
16r	.	.	8ee-
16c	.	.	.
16B-	.	.	8dd-W
16c	.	.	.
=45	=45	=45	=45
16A-	2ryy	2ryy	8cc
16c	.	.	.
16G-	.	.	8ee-
16c	.	.	.
16F	.	.	8a-
16c	.	.	.
16E-	.	.	16cc
16c	.	.	16ee-
=46	=46	=46	=46
16D-	2ryy	2ryy	8gg-
16F	.	.	.
16A-	.	.	8ff
16c	.	.	.
16Dn	.	.	8a-
16F	.	.	.
16A-	.	.	8ff
16B-	.	.	.
=47	=47	=47	=47
16E-	2ryy	2ryy	8a-W
16G	.	.	.
16B-	.	.	8g
16d-X	.	.	.
16En	.	.	8b-
16G	.	.	.
16B-	.	.	8gg
16c	.	.	.
=48	=48	=48	=48
16F	2ryy	2ryy	8b-W
16A-	.	.	.
16c	.	.	8a-
16en	.	.	.
8f	.	.	16cc
.	.	.	16een
8a-	.	.	16ff
.	.	.	16aa-
=49	=49	=49	=49
8B-	2ryy	2ryy	16dd-
.	.	.	16aa-
8c	.	.	16cc
.	.	.	16aa-
8d-	.	.	16b-
.	.	.	16aa-
8B-	.	.	16gg
.	.	.	16ff
=50	=50	=50	=50
*	*staff:1	*	*
*	*clefF4	*	*
8c	4ryy	2ryy	16ff
.	.	.	16een
8C	.	.	16ddn
.	.	.	16cc
8r	8r	.	16aa-
.	.	.	16ff
8F	8A-	.	16dd-
.	.	.	16cc
=51	=51	=51	=51
8F	4G	2ryy	16b-
.	.	.	16a-
8En	.	.	16b-
.	.	.	16dd-
8r	8r	.	16gg-
.	.	.	16ee-
8E-	8G-	.	16cc
.	.	.	16b-
=52	=52	=52	=52
4E-	8F	2ryy	16an
.	.	.	16gn
.	8c	.	16a
.	.	.	16cc
8r	8r	.	16ff
.	.	.	16dd-
8D-	8F	.	16b-
.	.	.	16a-
=53	=53	=53	=53
8D-	4E-	2ryy	16g-
.	.	.	16f
8C	.	.	16g-
.	.	.	16b-
8r	8r	.	16ee-
.	.	.	16cc
8BB-	8D-	.	16an
.	.	.	16g-X
=54	=54	=54	=54
*	*	*staff:6	*
8BB-	4C	4ryy	16f
.	.	.	16en
8AAn	.	.	16f
.	.	.	16ee-
16r	4ryy	8b-	8dd-
16B-	.	.	.
16c	.	8r	8r
16d-	.	.	.
=55	=55	=55	=55
16r	2ryy	8en	8g
16c	.	.	.
16B-	.	8ryy	8r
16A-	.	.	.
16r	.	8d-X	8b-
16G	.	.	.
16A-	.	8ryy	8r
16B-	.	.	.
=56	=56	=56	=56
16r	2ryy	8d-	8en
16A-	.	.	.
16G	.	8ryy	8r
16F	.	.	.
8En	.	8ryy	16r
.	.	.	16g
8c	.	8B-	16B-
.	.	.	16g
=57	=57	=57	=57
8F	2ryy	8A-	16A-
.	.	.	16g
8c	.	8A-	16A-
.	.	.	16f
8D-	.	8A-	16A-
.	.	.	16f
8Bn	.	8A-	16A-
.	.	.	16f
=58	=58	=58	=58
8C	2ryy	8A-	16A-
.	.	.	16f
8c	.	8G	8en
4F	.	8r	8r
.	.	8f	8a-
=59	=59	=59	=59
4B-	2ryy	8f	8a-
.	.	8en	8g
4d-	.	8r	8r
.	.	8e	16g
.	.	.	16a-
=60	=60	=60	=60
4G	2ryy	4en	16b-
.	.	.	16dd-
.	.	.	8cc
4A-	.	8r	8r
.	.	[8f	8cc
=61	=61	=61	=61
8d-	2ryy	8f]	16b-
.	.	.	16a-
8B-	.	8r	16g
.	.	.	16f
8c	.	8r	16a-
.	.	.	16g
8C	.	8B-	16f
.	.	.	16en
=62	=62	=62	=62
8D-	2ryy	8A-	16en
.	.	.	16f
8r	.	8r	16g
.	.	.	16f
8d-	.	4ryy	16en
.	.	.	16f
8D-	.	.	16b-
.	.	.	16f
=63	=63	=63	=63
8C	2ryy	2ryy	16en
.	.	.	16f
8c	.	.	16a-
.	.	.	16f
8B-	.	.	16en
.	.	.	16f
8BB-	.	.	16dd-
.	.	.	16f
=64	=64	=64	=64
*	*staff:3	*	*
16AA-	4ryy	2ryy	16en
16C	.	.	16f
16F	.	.	16cc
16G	.	.	16f
8A	4An	.	16e-
.	.	.	16f
8F	.	.	16an
.	.	.	16cc
=65	=65	=65	=65
4BB-	8r	2ryy	16cc
.	.	.	16an
.	8A-X	.	16f
.	.	.	16d-
8r	[4G	.	16d-
.	.	.	16e-
8E-	.	.	16g
.	.	.	16b-
=66	=66	=66	=66
4AA-	8G]	2ryy	16b-
.	.	.	16g
.	8G	.	16e-
.	.	.	16c
8r	[4F	.	16c
.	.	.	16d-
8D-	.	.	16f
.	.	.	16a-
=67	=67	=67	=67
4GG	8F]	2ryy	16a-
.	.	.	16f
.	8F	.	16d-
.	.	.	16B-
8r	4En	.	16B-
.	.	.	16c
8C	.	.	16en
.	.	.	16g
=68	=68	=68	=68
*	*	*staff:2	*
8FF	2ryy	4ryy	16g
.	.	.	16en
8AA-	.	.	16c
.	.	.	16A-
8C	.	8r	16r
.	.	.	16f
8E-	.	8c	16An
.	.	.	16f
=69	=69	=69	=69
*MM60	*MM60	*MM60	*MM60
8D-	2ryy	8r	16r
.	.	.	16g
8FF	.	8d-	16B-
.	.	.	16g
*MM54	*MM54	*MM54	*MM54
8EE-	.	8r	16r
.	.	.	16an
8C	.	8e-	16g-
.	.	.	16a
=70	=70	=70	=70
*MM40	*MM40	*MM40	*MM40
8BB-	2ryy	8r	16r
.	.	.	16b-
8DD-	.	8B-	16f
.	.	.	16b-
8CC	.	8r	16r
.	.	.	16a-
8C	.	8c	16f
.	.	.	16a-
=71	=71	=71	=71
8BBn	8Dn 8F	8r	8r
8r	8r	8dn	8f 8a-
4C	8C	4ryy	16r
.	.	.	16g
.	8B-	.	16fW
.	.	.	16en
=72	=72	=72	=72
4F	8B-	4ryy	8en
.	8A-	.	8f
==:|	==:|	==:|	==:|
*-	*-	*-	*-
!!!AFR:  prelude
!!!EFL:  71/96
!!!END:  1994/02/09/
!!!VID:  3208552860 Bach, BWV 881-01
!!!AST:  Baroque
!!!OCY:  Deutschland
!!!ODT:  1742///
!!!PDT:  1801///
!!!EED:  Walter Hewlett
!!!ENC:  Walter Hewlett
!!!YOR:  Bach Gesellschaft Edition xiv
!!!AFT:  enhanced SCORE
!!!RDT:  2011/10/07/ by Andreas Kornstaedt using massScr2hmd
!!!SCA1: Thematisch-systematisches Verzeichnis der musikalischen Werke 
!!!SCA2: Johann Sebastian Bach: Bach-Werke-Verzeichnis (Schmieder)
!!!YEC1: Copyright 1994, 2000 Center for Computer Assisted Research 
!!!YEC2: in the Humanities
!!!YEM1: Rights to all derivative editions reserved.
!!!YEM2: Refer to licensing agreement for further details.
!!!YEN:  United States of America
!!!ref:  @{OTL}, @{SCT}
!!muse2ps: T^@{OTL} @{ONM} in @{OKY}^C^J.S. Bach\n@{SCT}-@{OMV}^
!!muse2ps: u^@{OPR@ENG}, @{OVM@ENG}^j
